X:392
T:Leaving Glen Urquhart 
C:Joe Buchanan's Scottish Tome - Page 348.0
I:348 0
R:March
Z:Carl Allison
L:1/16
M:2/4
K:A
e>d | "A" c>Bc<A e2(c<A) | "A" A<AAa>e "D" f>e(c<A) | "A" c>Bc>A e>Ac>A | "A" c<ed<B "G" =G2e>d |
"A" c>Bc<A e2(c<A) | "A" A<AAa>e "D" f>e(c<A) | "Bm" B>cd>e "D" f<a"E7"e>B | "A" c2"D"A2 "A" A4 :|
"A" a>ga>f e2(c<A) | "A" A<AAa>e "D" f>e"A"(c<A) | "A" a>ga>e c<eA>e | "E7" c2A2 A2g2 |
"A" a>ga>f e2(c<A) | "A" A<AAg>e "D" f>e"A"(c<A) | "Bm" B>cd>e "D" f<a"E7"e>B | "A" c2B2 B2g2 |
"A" a>ga>f e2(c<A) | "A" A<AAg>e "D" f>e"A"(c<A) | "A" a>ga>e c<eA>e | "E7" c2B2 B2g2 |
"A" a>ga>f e2c<e | "A" A<AAae "D" f>e"A"c<A | "Bm" B>cd>e "D" f<a"E7"e>B | "A" c2"D"A2 "A" A4 |]
e>d | "A" c>Bc>A A<AAe>A | "A" (c<e)a>e "D" f>e"A"c<A | "A" cBc<A c<eA>e | "E7" c2B2 B2e>d ||
"A" c>Bc>A A<AAe>A | "A" (c<e)a>e "D" f>e"A"c<A | "Bm" B>cd>e "D" f<a"E7"e>B | "A" c2"D"A2 "A" A4 |
(c>d) | "A" e>cA>c e>Ac<A | d2c>f "A" e>Ac<A | "A" A<AAcA c<eA>e | "E7" c2B2 B2c>d :|
"A" e>cA>c e>Ac<A | d2c>f "A" e>Ac<A | "Bm" B>cd>e "D" f<a"E7"e>B | "A" c2"D"A2 "A" A4 c>d |
"A" e>cA>c e>cB<A | d2c>f "A" e>Ac<A | "A" A<AAcA c<eA>e | "E7" c2B2 B2e>d |
"A" c>Bc<A A<AAe>A | c<ea>e "A" f>ec<A | "Bm" B>cd>e "D" f<a"E7"e>B | "A" c2"D"A2 "A" A4 |]

